Origami/64x64/apps/cherrytree.svg

<svg width="64" height="64" version="1.1" viewBox="0 0 64 64" xmlns="http://www.w3.org/2000/svg">
 <path d="m57.95384 39.800066a13.999957 13.999957 0 0 1 -13.953957 13.199959 13.999957 13.999957 0 0 1 -13.953157 -12.91796 13.999957 13.999957 0 0 0 -0.04688 0.917997 13.999957 13.999957 0 0 0 13.999957 13.999957 13.999957 13.999957 0 0 0 13.999956 -13.999957 13.999957 13.999957 0 0 0 -0.046879 -1.081996z" style="opacity:.2"/>
 <path d="M 33.953914,45.800047 A 13.999957,13.999957 0 0 1 19.999957,59.000007 13.999957,13.999957 0 0 1 6.0468005,46.000047 13.999957,13.999957 0 0 0 6.0000006,47.000044 13.999957,13.999957 0 0 0 19.999957,61 13.999957,13.999957 0 0 0 33.999914,47.000044 13.999957,13.999957 0 0 0 33.953034,45.918047 Z" style="opacity:.2"/>
 <path d="m42.999886 39.000053s-5.527983-8.944773-5.999981-13.999957c-0.571479-6.119781 3.999987-17.999944 3.999987-17.999944" style="fill:none;stroke-linecap:round;stroke-linejoin:round;stroke-width:5.9999814;stroke:#1f711f"/>
 <path d="m43.859883 6.7999032a3.0003907 3.0003907 0 0 1 -1.265616 1.5585952s-3.01639 1.8915946-6.45698 4.5273856c-3.440589 2.635592-7.267377 6.188181-8.527373 8.409974-1.350456 2.380993-2.484993 7.760576-3.007791 12.296962-0.523998 4.599986-0.601998 8.399974-0.601998 8.399974a3.0005907 3.0005907 0 0 1 -5.941382 0.519599c-0.0182 0.399998-0.0586 1.199996-0.0586 1.199996a3.0006111 3.0006111 0 1 0 5.999982 0.122s0.07884-3.748789 0.601558-8.285175 1.657335-9.915769 3.007791-12.296762c1.259996-2.221793 5.086784-5.774582 8.527373-8.410174 3.44059-2.635791 6.45698-4.527386 6.45698-4.527386a3.0003907 3.0003907 0 0 0 1.265616 -3.5623886z" style="fill-rule:evenodd;opacity:.2"/>
 <path d="m20.999954 43.00004s0.322959-15.516552 3.999988-21.999932c3.495989-6.16438 15.99995-13.999956 15.99995-13.999956" style="fill:none;stroke-linecap:round;stroke-linejoin:round;stroke-width:5.9999814;stroke:#248424"/>
 <path d="m41.025391 3.9492188l-0.001953 0.0507812a3.0003907 3.0003907 0 0 0 -1.617188 0.4804688s-3.23258 2.024465-6.917969 4.8476562c-3.685388 2.823191-7.861663 6.272256-10.097656 10.214844-2.326593 4.102387-3.192001 9.723821-3.75 14.566406-0.557398 4.799985-0.638672 8.800781-0.638672 8.800781a3.0005907 3.0005907 0 0 0 0.025391 0.408203c0.02115-0.76975 0.119283-3.954963 0.613281-8.208984 0.557999-4.842585 1.423407-10.464019 3.75-14.566406 2.235993-3.942588 6.412268-7.391653 10.097656-10.214844 3.685389-2.8231916 6.917969-4.8476562 6.917969-4.8476562a3.0003907 3.0003907 0 0 1 1.617188 -0.4804688l0.001953-0.0507812a3.0003907 3.0003907 0 0 1 2.964843 2.4960937 3.0003907 3.0003907 0 0 0 -2.964843 -3.4960937z" style="fill-rule:evenodd;fill:#ffffff;opacity:.1"/>
 <circle cx="44" cy="40" r="14" style="fill:#c72828"/>
 <path d="M 44 26 A 13.999957 13.999957 0 0 0 30 40 A 13.999957 13.999957 0 0 0 30.019531 40.451172 A 13.999957 13.999957 0 0 1 44 27 A 13.999957 13.999957 0 0 1 57.974609 40.496094 A 13.999957 13.999957 0 0 0 58 40 A 13.999957 13.999957 0 0 0 44 26 z" style="fill:#ffffff;opacity:.2"/>
 <circle cx="20" cy="46" r="14" style="fill:#ff3737"/>
 <path d="M 20 32 A 13.999957 13.999957 0 0 0 6 46 A 13.999957 13.999957 0 0 0 6.0195312 46.451172 A 13.999957 13.999957 0 0 1 20 33 A 13.999957 13.999957 0 0 1 33.974609 46.496094 A 13.999957 13.999957 0 0 0 34 46 A 13.999957 13.999957 0 0 0 20 32 z" style="fill:#ffffff;opacity:.2"/>
</svg>

<svg xmlns="http://www.w3.org/2000/svg" width="64" height="64" version="1.1" viewBox="0 0 64 64">
 <path style="opacity:0.2" d="M 57.95384,39.800066 A 13.999957,13.999957 0 0 1 43.999883,53.000025 13.999957,13.999957 0 0 1 30.046726,40.082065 13.999957,13.999957 0 0 0 29.999846,41.000062 13.999957,13.999957 0 0 0 43.999803,55.000019 13.999957,13.999957 0 0 0 57.999759,41.000062 13.999957,13.999957 0 0 0 57.95288,39.918066 Z"/>
 <path style="opacity:0.2" d="M 33.953914,45.800047 A 13.999957,13.999957 0 0 1 19.999957,59.000007 13.999957,13.999957 0 0 1 6.0468005,46.000047 13.999957,13.999957 0 0 0 6.0000006,47.000044 13.999957,13.999957 0 0 0 19.999957,61 13.999957,13.999957 0 0 0 33.999914,47.000044 13.999957,13.999957 0 0 0 33.953034,45.918047 Z"/>
 <path style="fill:none;stroke:#1f711f;stroke-width:5.9999814;stroke-linecap:round;stroke-linejoin:round" d="m 42.999886,39.000053 c 0,0 -5.527983,-8.944773 -5.999981,-13.999957 -0.571479,-6.119781 3.999987,-17.9999442 3.999987,-17.9999442"/>
 <path style="opacity:0.2;fill-rule:evenodd" d="m 43.859883,6.7999032 a 3.0003907,3.0003907 0 0 1 -1.265616,1.5585952 c 0,0 -3.01639,1.8915946 -6.45698,4.5273856 -3.440589,2.635592 -7.267377,6.188181 -8.527373,8.409974 -1.350456,2.380993 -2.484993,7.760576 -3.007791,12.296962 -0.523998,4.599986 -0.601998,8.399974 -0.601998,8.399974 a 3.0005907,3.0005907 0 0 1 -5.941382,0.519599 c -0.0182,0.399998 -0.0586,1.199996 -0.0586,1.199996 a 3.0006111,3.0006111 0 1 0 5.999982,0.122 c 0,0 0.07884,-3.748789 0.601558,-8.285175 0.522718,-4.536386 1.657335,-9.915769 3.007791,-12.296762 1.259996,-2.221793 5.086784,-5.774582 8.527373,-8.410174 3.44059,-2.635791 6.45698,-4.527386 6.45698,-4.527386 a 3.0003907,3.0003907 0 0 0 1.265616,-3.5623886 z"/>
 <path style="fill:none;stroke:#248424;stroke-width:5.9999814;stroke-linecap:round;stroke-linejoin:round" d="m 20.999954,43.00004 c 0,0 0.322959,-15.516552 3.999988,-21.999932 3.495989,-6.16438 15.99995,-13.9999562 15.99995,-13.9999562"/>
 <path style="opacity:0.1;fill:#ffffff;fill-rule:evenodd" d="M 41.025391 3.9492188 L 41.023438 4 A 3.0003907 3.0003907 0 0 0 39.40625 4.4804688 C 39.40625 4.4804688 36.17367 6.5049338 32.488281 9.328125 C 28.802893 12.151316 24.626618 15.600381 22.390625 19.542969 C 20.064032 23.645356 19.198624 29.26679 18.640625 34.109375 C 18.083227 38.90936 18.001953 42.910156 18.001953 42.910156 A 3.0005907 3.0005907 0 0 0 18.027344 43.318359 C 18.048494 42.548609 18.146627 39.363396 18.640625 35.109375 C 19.198624 30.26679 20.064032 24.645356 22.390625 20.542969 C 24.626618 16.600381 28.802893 13.151316 32.488281 10.328125 C 36.17367 7.5049334 39.40625 5.4804688 39.40625 5.4804688 A 3.0003907 3.0003907 0 0 1 41.023438 5 L 41.025391 4.9492188 A 3.0003907 3.0003907 0 0 1 43.990234 7.4453125 A 3.0003907 3.0003907 0 0 0 41.025391 3.9492188 z"/>
 <circle style="fill:#c72828" cx="44" cy="40" r="14"/>
 <path style="opacity:0.2;fill:#ffffff" d="M 44 26 A 13.999957 13.999957 0 0 0 30 40 A 13.999957 13.999957 0 0 0 30.019531 40.451172 A 13.999957 13.999957 0 0 1 44 27 A 13.999957 13.999957 0 0 1 57.974609 40.496094 A 13.999957 13.999957 0 0 0 58 40 A 13.999957 13.999957 0 0 0 44 26 z"/>
 <circle style="fill:#ff3737" cx="20" cy="46" r="14"/>
 <path style="opacity:0.2;fill:#ffffff" d="M 20 32 A 13.999957 13.999957 0 0 0 6 46 A 13.999957 13.999957 0 0 0 6.0195312 46.451172 A 13.999957 13.999957 0 0 1 20 33 A 13.999957 13.999957 0 0 1 33.974609 46.496094 A 13.999957 13.999957 0 0 0 34 46 A 13.999957 13.999957 0 0 0 20 32 z"/>
</svg>
